Newaita/actions/32/meeting-participant-no-response.svg

<?xml version="1.0" encoding="UTF-8"?>
<svg xmlns="http://www.w3.org/2000/svg" xmlns:xlink="http://www.w3.org/1999/xlink" width="32pt" height="32pt" viewBox="0 0 32 32" version="1.1">
<g id="surface1">
<path style=" stroke:none;fill-rule:nonzero;fill:rgb(47.058824%,56.470591%,61.176473%);fill-opacity:0.996078;" d="M 22.492188 13.480469 C 19.925781 13.480469 17.859375 15.546875 17.859375 18.109375 C 17.859375 20.675781 19.925781 22.742188 22.492188 22.742188 C 25.058594 22.742188 27.121094 20.675781 27.121094 18.109375 C 27.121094 15.546875 25.058594 13.480469 22.492188 13.480469 Z M 22.492188 15.464844 C 23.957031 15.464844 25.136719 16.644531 25.136719 18.109375 C 25.136719 19.578125 23.957031 20.757812 22.492188 20.757812 C 21.027344 20.757812 19.84375 19.578125 19.84375 18.109375 C 19.84375 16.644531 21.027344 15.464844 22.492188 15.464844 Z M 22.492188 15.464844 "/>
<path style=" stroke:none;fill-rule:nonzero;fill:rgb(47.058824%,56.470591%,61.176473%);fill-opacity:1;" d="M 19.085938 22.578125 C 16.402344 23.40625 14.554688 25.183594 14.554688 27.257812 L 14.554688 27.371094 L 14.609375 27.371094 C 14.574219 27.476562 14.554688 27.585938 14.554688 27.703125 L 14.554688 29.6875 C 14.554688 29.71875 14.554688 29.75 14.558594 29.777344 C 14.554688 29.800781 14.554688 29.828125 14.554688 29.851562 C 14.554688 30.3125 14.996094 30.679688 15.546875 30.679688 L 29.4375 30.679688 C 29.988281 30.679688 30.429688 30.3125 30.429688 29.851562 C 30.429688 29.828125 30.429688 29.800781 30.425781 29.777344 C 30.429688 29.75 30.429688 29.71875 30.429688 29.6875 L 30.429688 27.703125 C 30.429688 27.585938 30.410156 27.476562 30.375 27.371094 L 30.429688 27.371094 L 30.429688 27.257812 C 30.429688 25.183594 28.582031 23.40625 25.898438 22.578125 C 25.054688 23.492188 23.84375 24.066406 22.492188 24.066406 C 21.140625 24.066406 19.929688 23.492188 19.085938 22.578125 Z M 19.152344 24.632812 C 19.992188 25.507812 21.175781 26.050781 22.492188 26.050781 C 23.808594 26.050781 24.992188 25.507812 25.832031 24.632812 C 27.410156 25.226562 28.445312 26.230469 28.445312 27.371094 L 28.5 27.371094 C 28.464844 27.476562 28.445312 27.585938 28.445312 27.703125 L 28.445312 29.027344 L 16.539062 29.027344 L 16.539062 27.703125 C 16.539062 27.585938 16.519531 27.476562 16.480469 27.371094 L 16.539062 27.371094 C 16.539062 26.230469 17.570312 25.226562 19.152344 24.632812 Z M 19.152344 24.632812 "/>
<path style=" stroke:none;fill-rule:nonzero;fill:rgb(25.882354%,25.882354%,25.882354%);fill-opacity:0.392157;" d="M 3.96875 5.542969 C 5.429688 5.542969 6.613281 6.726562 6.613281 8.1875 C 6.613281 9.648438 5.429688 10.835938 3.96875 10.835938 C 2.507812 10.835938 1.324219 9.648438 1.324219 8.1875 C 1.324219 6.726562 2.507812 5.542969 3.96875 5.542969 Z M 3.96875 5.542969 "/>
<path style=" stroke:none;fill-rule:nonzero;fill:rgb(25.882354%,25.882354%,25.882354%);fill-opacity:0.392157;" d="M 10.585938 5.542969 C 12.046875 5.542969 13.230469 6.726562 13.230469 8.1875 C 13.230469 9.648438 12.046875 10.835938 10.585938 10.835938 C 9.121094 10.835938 7.9375 9.648438 7.9375 8.1875 C 7.9375 6.726562 9.121094 5.542969 10.585938 5.542969 Z M 10.585938 5.542969 "/>
<path style=" stroke:none;fill-rule:nonzero;fill:rgb(25.882354%,25.882354%,25.882354%);fill-opacity:0.392157;" d="M 17.199219 5.542969 C 18.660156 5.542969 19.84375 6.726562 19.84375 8.1875 C 19.84375 9.648438 18.660156 10.835938 17.199219 10.835938 C 15.738281 10.835938 14.554688 9.648438 14.554688 8.1875 C 14.554688 6.726562 15.738281 5.542969 17.199219 5.542969 Z M 17.199219 5.542969 "/>
</g>
</svg>

<svg xmlns="http://www.w3.org/2000/svg" width="32pt" height="32pt" viewBox="0 0 32 32"><path d="M22.492 13.48a4.622 4.622 0 0 0-4.633 4.63 4.623 4.623 0 0 0 4.633 4.632 4.62 4.62 0 0 0 4.63-4.633 4.619 4.619 0 0 0-4.63-4.629zm0 1.985a2.639 2.639 0 0 1 2.645 2.644 2.64 2.64 0 0 1-2.645 2.649 2.643 2.643 0 0 1-2.648-2.649 2.642 2.642 0 0 1 2.648-2.644zm0 0" fill="#78909c" fill-opacity=".996"/><path d="M19.086 22.578c-2.684.828-4.531 2.606-4.531 4.68v.113h.054a1.038 1.038 0 0 0-.054.332v1.985c0 .03 0 .062.004.09-.004.023-.004.05-.004.074 0 .46.441.828.992.828h13.89c.551 0 .993-.367.993-.828 0-.024 0-.051-.004-.075.004-.027.004-.058.004-.09v-1.984c0-.117-.02-.226-.055-.332h.055v-.113c0-2.074-1.848-3.852-4.532-4.68a4.618 4.618 0 0 1-3.406 1.488 4.618 4.618 0 0 1-3.406-1.488zm.066 2.055a4.61 4.61 0 0 0 3.34 1.418 4.61 4.61 0 0 0 3.34-1.418c1.578.594 2.613 1.597 2.613 2.738h.055a1.038 1.038 0 0 0-.055.332v1.324H16.54v-1.324a.943.943 0 0 0-.059-.332h.06c0-1.14 1.03-2.144 2.612-2.738zm0 0" fill="#78909c"/><path d="M3.969 5.543a2.647 2.647 0 0 1 0 5.293 2.647 2.647 0 0 1 0-5.293zm0 0M10.586 5.543a2.647 2.647 0 1 1-2.648 2.645 2.645 2.645 0 0 1 2.648-2.645zm0 0M17.2 5.543a2.647 2.647 0 0 1 0 5.293 2.647 2.647 0 0 1 0-5.293zm0 0" fill="#424242" fill-opacity=".392"/></svg>
